X:1
T:Westminster (Turle), CM
T:Westminster (Turle), CM
T:James Turle, 1835
T:Public Domain Courtesy of the Cyber Hymnal™
C:James Turle, 1835
Z:Public Domain
Z:Courtesy of the Cyber Hymnal™
%%score ( 1 2 ) ( 3 4 )
L:1/8
Q:1/4=112
M:4/4
K:C
V:1 treble 
V:2 treble 
V:3 bass 
V:4 bass 
V:1
 [CE]2 | [EG]2 [DG]2 C2 [Ec]2 | [EB]2 A2 [EG]2 [FG]2 | [Ee]2 B2 [Ec]2 d2 | [DG]6 [DG]2 | %5
 [DB]2 [DA]2 [D^G]2 [CA]2 | [Ec]2 B2 [CA]2 [FA]2 | [EG]2 C2 [CD]2 [B,F]2 | [CE]6 |] %9
V:2
 x2 | x4 C2 x2 | x2 (CD) x4 | x2 (GF) x (FE) x | x8 | x8 | x2 (ED) x4 | x2 C2 x4 | x6 |] %9
V:3
 [C,G,]2 | [C,G,]2 [B,,D,]2 [A,,E,]2 [A,C]2 | [G,E]2 (A,B,) [E,C]2 [D,B,]2 | %3
 [C,C]2 (ED) [A,C]2 [F,A,]2 | [G,B,]6 [G,B,]2 | G,2 [F,A,]2 [E,B,]2 [F,A,]2 | %6
 [E,A,]2 [E,^G,]2 [A,,A,]2 [B,,D]2 | [C,G,]2 [E,G,]2 [F,A,]2 G,2 | [C,G,]6 |] %9
V:4
 x2 | x8 | x2 F,2 x4 | x2 G,2 x4 | x8 | G,2 x6 | x8 | x6 G,2 | x6 |] %9

